X: 6
T: The Harvest Home
R: hornpipe
M: 4/4
L: 1/8
K: Gmaj
|:BdGd BdGd|gbab gfed |eAab c'abg |(3aba (3gfe dcBA|
BdGd BdGd|gbaf gfed|(3efg ab c'afa |g2 gf [1 gedc:|[2 gd (3efg||
ad (3ddd ed (3ddd|c' (3ddd ed (3ddd|eAab c'abg|(3aba (3gfe dcBA|
BdGd BdGd|gbaf gfed|(3efg ab c'afa |g2 gf [1 gd (3efg|[2 gedc:|


Tune 49	Setting 49

